src/categories-icons-sprite/categories/svg-cat-cosmetics-skin.svg

<svg width="24" height="34" viewBox="0 0 24 34" fill="none" xmlns="http://www.w3.org/2000/svg">
<path class="p-7FEFEF" d="M21.0055 4.48986L18.6321 6.86273L17.8031 6.0338L20.2335 3.60339C18.0195 1.30122 14.9634 0 11.7693 0C8.57527 0 5.51887 1.30122 3.30514 3.60339L5.73554 6.0338L4.90661 6.86273L2.53288 4.48986C0.891332 6.56075 -0.00142944 9.12655 1.71802e-06 11.7693V16.4327C0.00229158 19.9402 0.93255 23.385 2.69661 26.4168L4.90719 24.2062L5.73612 25.0351L3.33262 27.4386C4.89803 29.8015 6.9506 31.8025 9.35296 33.307C10.8314 34.2309 12.7073 34.2309 14.1857 33.307C16.5895 31.8034 18.6438 29.8029 20.2106 27.4398L17.8071 25.0363L18.6361 24.2073L20.8467 26.4179C22.6107 23.3861 23.541 19.9413 23.5433 16.4338V11.7693C23.5433 9.12598 22.6491 6.56018 21.0055 4.48986ZM13.852 21.1621L14.3761 22.2114C12.7339 23.0266 10.8047 23.0266 9.16233 22.2114L9.68642 21.1621C10.9985 21.8144 12.5402 21.8144 13.852 21.1621ZM2.97626 15.2414C2.97626 13.6227 4.55082 12.3103 6.49349 12.3103C8.43616 12.3103 10.0107 13.6227 10.0107 15.2414C10.0107 16.86 8.43616 18.1724 6.49349 18.1724C4.55082 18.1724 2.97626 16.86 2.97626 15.2414ZM12.9418 29.3103H10.5969C9.62574 29.3103 8.83831 28.5229 8.83831 27.5517C8.83831 26.5805 9.62574 25.7931 10.5969 25.7931H12.9418C13.9129 25.7931 14.7004 26.5805 14.7004 27.5517C14.7004 28.5229 13.9129 29.3103 12.9418 29.3103ZM17.0452 18.1724C15.1025 18.1724 13.528 16.86 13.528 15.2414C13.528 13.6227 15.1025 12.3103 17.0452 12.3103C18.9879 12.3103 20.5624 13.6227 20.5624 15.2414C20.5624 16.86 18.9879 18.1724 17.0452 18.1724Z" fill="#65B3E7"/>
<path class="p-6ACCCA" d="M21.0057 4.48986L18.6323 6.86273L17.8033 6.0338L20.2337 3.60339C18.0212 1.29922 14.9639 -0.00228685 11.7695 3.01649e-06L13.9349 2.33195C16.6538 5.2624 18.4525 8.92676 19.1071 12.8702C19.977 13.3482 20.53 14.2493 20.5626 15.2414C20.54 16.133 20.0863 16.9585 19.3456 17.4554C19.1352 20.9795 18.014 24.3888 16.0922 27.3499L11.7695 33.9999C12.6239 33.9999 13.4612 33.7598 14.1859 33.307C16.5897 31.8034 18.644 29.8029 20.2108 27.4398L17.8073 25.0363L18.6363 24.2073L20.8468 26.4179C22.6109 23.3861 23.5412 19.9413 23.5435 16.4338V11.7693C23.5435 9.12598 22.6493 6.56018 21.0057 4.48986Z" fill="#65B3E7"/>
</svg>

<svg width="24" height="34" fill="none" xmlns="http://www.w3.org/2000/svg"><path class="p-7FEFEF" d="M21.006 4.49l-2.374 2.373-.829-.83 2.43-2.43a11.743 11.743 0 00-16.928 0l2.43 2.43-.828.83L2.533 4.49A11.709 11.709 0 000 11.77v4.663a19.879 19.879 0 002.697 9.984l2.21-2.21.83.828-2.404 2.404a19.877 19.877 0 006.02 5.868 4.56 4.56 0 004.833 0 19.875 19.875 0 006.025-5.867l-2.404-2.404.83-.829 2.21 2.21a19.88 19.88 0 002.696-9.983v-4.665c0-2.643-.894-5.209-2.537-7.28zm-7.154 16.672l.524 1.05a5.863 5.863 0 01-5.214 0l.524-1.05a4.678 4.678 0 004.166 0zm-10.876-5.92c0-1.62 1.575-2.932 3.517-2.932 1.943 0 3.518 1.313 3.518 2.931 0 1.619-1.575 2.931-3.518 2.931-1.942 0-3.517-1.312-3.517-2.93zm9.966 14.068h-2.345a1.759 1.759 0 010-3.517h2.345a1.759 1.759 0 010 3.517zm4.103-11.138c-1.943 0-3.517-1.312-3.517-2.93 0-1.62 1.574-2.932 3.517-2.932 1.943 0 3.517 1.313 3.517 2.931 0 1.619-1.574 2.931-3.517 2.931z" fill="#65B3E7"/><path class="p-6ACCCA" d="M21.006 4.49l-2.374 2.373-.829-.83 2.43-2.43A11.723 11.723 0 0011.77 0l2.165 2.332a20.408 20.408 0 015.172 10.538 2.81 2.81 0 011.456 2.371 2.75 2.75 0 01-1.217 2.214 20.41 20.41 0 01-3.254 9.895L11.77 34a4.56 4.56 0 002.416-.693 19.875 19.875 0 006.025-5.867l-2.404-2.404.83-.829 2.21 2.21a19.878 19.878 0 002.697-9.983v-4.665c0-2.643-.895-5.209-2.538-7.28z" fill="#65B3E7"/></svg>
